X: 13968
T: Frances Shannon's
R: jig
M: 6/8
K: Eminor
B3 BAF|EDB, EFA|B3 egf|afe fed|
B3 EFE|EDB, E3|edB AFD|1 FEE E3:|2 FEE E2D||
|:B,EE B2A|Bed BAF|DFD EDB,|DB,A, A,2D|
B,EE BAF|B,EE dBA|B,EE ABd|1 FEE E2D:|2 FEE E3||
|:baf e2f|a3 baf|efe fed|faa BAF|
E3 BAF|E3 edB|a3 baf|efe e3:|

